src/images/logo.svg

<?xml version="1.0" encoding="UTF-8"?>
<svg width="1500px" height="750px" viewBox="0 0 1500 750" version="1.1" xmlns="http://www.w3.org/2000/svg" xmlns:xlink="http://www.w3.org/1999/xlink">
    <g id="logo" stroke="none" stroke-width="1" fill="none" fill-rule="evenodd">
        <path d="M1125,0 C1332.10678,0 1500,167.893219 1500,375 C1500,582.106781 1332.10678,750 1125,750 L1125,750 L1125,752 L375,752 L375,750 C167.893219,750 0,582.106781 0,375 C0,169.964287 164.552144,3.36178573 368.798689,0.050239286 L375,0 Z" id="tab" fill="#FFD700"></path>
        <path d="M399.793,187.7 C431.097157,187.7 456.997231,192.917281 477.494,203.352 C497.990769,213.786719 513.26995,228.134242 523.332,246.395 C533.39405,264.655758 538.425,285.15222 538.425,307.885 C538.425,329.499775 533.580382,349.344076 523.891,367.4185 C514.201618,385.492924 499.108769,400.026778 478.612,411.0205 C458.115231,422.014222 431.842494,427.511 399.793,427.511 L326.564,427.511 L326.564,579 L255.012,579 L255.012,187.7 L399.793,187.7 Z M395.321,245.836 L326.564,245.836 L326.564,369.375 L395.321,369.375 C420.289792,369.375 438.270778,363.878222 449.2645,352.8845 C460.258222,341.890778 465.755,326.891095 465.755,307.885 C465.755,288.506236 460.258222,273.320222 449.2645,262.3265 C438.270778,251.332778 420.289792,245.836 395.321,245.836 Z" id="p" fill="#000000" fill-rule="nonzero"></path>
        <path d="M582.648,579 L582.648,176.52 L654.2,176.52 L654.2,344.22 C663.516713,328.94059 676.094087,316.92221 691.9325,308.1645 C707.770913,299.40679 725.938231,295.028 746.435,295.028 C780.720505,295.028 807.272739,305.835225 826.0925,327.45 C844.912261,349.064775 854.322,380.741125 854.322,422.48 L854.322,579 L783.329,579 L783.329,429.188 C783.329,405.337214 778.577548,387.07673 769.0745,374.406 C759.571452,361.73527 744.571769,355.4 724.075,355.4 C703.950899,355.4 687.274233,362.480596 674.0445,376.642 C660.814767,390.803404 654.2,410.55454 654.2,435.896 L654.2,579 L582.648,579 Z" id="h" fill="#000000" fill-rule="nonzero"></path>
        <g id="i" transform="translate(906.371000, 176.520000)" fill="#000000" fill-rule="nonzero">
            <path d="M44.72,82.173 C31.6766014,82.173 20.9625419,78.2600391 12.5775,70.434 C4.19245807,62.6079609 -1.13686838e-13,52.732393 -1.13686838e-13,40.807 C-1.13686838e-13,28.881607 4.19245807,19.0992049 12.5775,11.4595 C20.9625419,3.81979514 31.6766014,0 44.72,0 C57.7633985,0 68.4774581,3.81979514 76.8625,11.4595 C85.2475419,19.0992049 89.44,28.881607 89.44,40.807 C89.44,52.732393 85.2475419,62.6079609 76.8625,70.434 C68.4774581,78.2600391 57.7633985,82.173 44.72,82.173 Z" id="Path"></path>
            <polygon id="Path" points="8.944 402.48 8.944 125.216 80.496 125.216 80.496 402.48"></polygon>
        </g>
        <polygon id="l" fill="#000000" fill-rule="nonzero" points="1051.773 579 1051.773 176.52 1123.325 176.52 1123.325 579"></polygon>
        <path d="M1217.299,582.913 C1204.2556,582.913 1193.54154,578.813708 1185.1565,570.615 C1176.77146,562.416292 1172.579,552.540724 1172.579,540.988 C1172.579,529.062607 1176.77146,519.000708 1185.1565,510.802 C1193.54154,502.603292 1204.2556,498.504 1217.299,498.504 C1230.3424,498.504 1241.05646,502.603292 1249.4415,510.802 C1257.82654,519.000708 1262.019,529.062607 1262.019,540.988 C1262.019,552.540724 1257.82654,562.416292 1249.4415,570.615 C1241.05646,578.813708 1230.3424,582.913 1217.299,582.913 Z" id="fullstop" fill="#000000" fill-rule="nonzero"></path>
    </g>
</svg>

<svg
  width="100"
  viewBox="0 0 1500 750"
  xmlns="http://www.w3.org/2000/svg"
>
  <g fill="none" fillRule="evenodd">
    <path
      d="M1125 0c207.107 0 375 167.893 375 375s-167.893 375-375 375v2H375v-2C167.893 750 0 582.107 0 375 0 169.964 164.552 3.362 368.799.05L375 0z"
      fill="gold"
    />
    <path
      d="M255.012 579V187.7h144.781c31.304 0 57.204 5.217 77.701 15.652 20.497 10.435 35.776 24.782 45.838 43.043 10.062 18.26 15.093 38.757 15.093 61.49 0 21.615-4.845 41.46-14.534 59.534-9.69 18.074-24.782 32.608-45.279 43.602-20.497 10.993-46.77 16.49-78.819 16.49h-73.229V579h-71.552zm71.552-209.625h68.757c24.969 0 42.95-5.497 53.943-16.49 10.994-10.994 16.491-25.994 16.491-45 0-19.379-5.497-34.565-16.49-45.558-10.994-10.994-28.975-16.491-53.944-16.491h-68.757v123.539zM582.648 579V176.52H654.2v167.7c9.317-15.28 21.894-27.298 37.732-36.056 15.839-8.757 34.006-13.136 54.503-13.136 34.286 0 60.838 10.807 79.658 32.422 18.82 21.615 28.229 53.291 28.229 95.03V579h-70.993V429.188c0-23.85-4.751-42.111-14.255-54.782-9.503-12.67-24.502-19.006-44.999-19.006-20.124 0-36.8 7.08-50.03 21.242-13.23 14.161-19.845 33.913-19.845 59.254V579h-71.552zm368.443-320.307c-13.043 0-23.757-3.913-32.143-11.739-8.385-7.826-12.577-17.702-12.577-29.627 0-11.925 4.192-21.708 12.577-29.347 8.386-7.64 19.1-11.46 32.143-11.46s23.757 3.82 32.143 11.46c8.385 7.64 12.577 17.422 12.577 29.347s-4.192 21.801-12.577 29.627c-8.386 7.826-19.1 11.739-32.143 11.739zM915.315 579V301.736h71.552V579h-71.552zm136.458 0V176.52h71.552V579h-71.552zm165.526 3.913c-13.043 0-23.757-4.1-32.142-12.298-8.386-8.199-12.578-18.074-12.578-29.627 0-11.925 4.192-21.987 12.578-30.186 8.385-8.199 19.099-12.298 32.142-12.298 13.043 0 23.757 4.1 32.142 12.298 8.386 8.199 12.578 18.26 12.578 30.186 0 11.553-4.192 21.428-12.578 29.627-8.385 8.199-19.099 12.298-32.142 12.298z"
      fill="#000"
      fillRule="nonzero"
    />
  </g>
</svg>
